svg/u1f53b.svg

<svg viewBox="0 0 128 128" xmlns="http://www.w3.org/2000/svg">
  <g>
    <path d="M61.32,90l-28-48.5c-0.95-1.8-0.26-4.02,1.53-4.97c0.54-0.29,1.15-0.43,1.77-0.43h56 c2.03-0.03,3.7,1.6,3.73,3.63c0.01,0.62-0.14,1.22-0.43,1.77l-28,48.5c-0.85,1.82-3.01,2.61-4.84,1.76 C62.3,91.41,61.68,90.78,61.32,90z" fill="#CC3333"/>
    <path d="M58.59,85.3L33.09,41c-0.84-1.67-0.17-3.7,1.5-4.54c0.47-0.23,0.98-0.36,1.5-0.36h51 c1.86-0.01,3.37,1.49,3.37,3.35c0,0.54-0.13,1.07-0.37,1.55l-25.4,44.3c-0.85,1.68-2.91,2.36-4.6,1.5 C59.45,86.48,58.92,85.95,58.59,85.3z" fill="#F44336"/>
  </g>
  <path d="M44.6,43.58c1.02,1.14,18.79,30.98,18.79,30.98s1.52,2.29-0.25,3.68c-1.78,1.4-3.43,0-4.19-1.14 S42.06,49.17,41.43,47.9c-0.56-1.45-0.32-3.09,0.63-4.32C42.95,42.69,43.97,42.69,44.6,43.58z" fill="#FF8A80"/>
</svg>

<svg viewBox="0 0 128 128" xmlns="http://www.w3.org/2000/svg">
  <defs/>
  <path d="M61.32,90 L33.32,41.5 C32.37,39.7 33.06,37.48 34.85,36.53 C35.39,36.24 36,36.1 36.62,36.1 L92.62,36.1 C94.65,36.07 96.32,37.7 96.35,39.73 C96.36,40.35 96.21,40.95 95.92,41.5 L67.92,90 C67.07,91.82 64.91,92.61 63.08,91.76 C62.3,91.41 61.68,90.78 61.32,90 Z" fill="#CC3333"/>
  <path d="M58.59,85.3 L33.09,41 C32.25,39.33 32.92,37.3 34.59,36.46 C35.06,36.23 35.57,36.1 36.09,36.1 L87.09,36.1 C88.95,36.09 90.46,37.59 90.46,39.45 C90.46,39.99 90.33,40.52 90.09,41 L64.69,85.3 C63.84,86.98 61.78,87.66 60.09,86.8 C59.45,86.48 58.92,85.95 58.59,85.3 Z" fill="#F44336"/>
  <path d="M44.6,43.58 C45.62,44.72 63.39,74.56 63.39,74.56 C63.39,74.56 64.91,76.85 63.14,78.24 C61.36,79.64 59.71,78.24 58.95,77.1 C58.19,75.96 42.06,49.17 41.43,47.9 C40.87,46.45 41.11,44.81 42.06,43.58 C42.95,42.69 43.97,42.69 44.6,43.58 Z" fill="#FF8A80"/>
</svg>
